src/assets/bold/lm-checkbox-bold.svg

<svg width="24" height="24" viewBox="0 0 24 24" fill="none" xmlns="http://www.w3.org/2000/svg" fill="currentColor">
<path d="M17.9397 9.40827C18.1652 9.16544 18.1511 8.78581 17.9083 8.56032C17.6654 8.33484 17.2858 8.3489 17.0603 8.59173L10.9598 15.1615L6.89862 11.5516C6.65095 11.3314 6.27171 11.3537 6.05155 11.6014C5.8314 11.8491 5.85371 12.2283 6.10138 12.4484L10.6014 16.4484C10.8453 16.6652 11.2177 16.6474 11.4397 16.4083L17.9397 9.40827Z" fill="black"/>
<path d="M1 3C1 1.89543 1.89543 1 3 1H21C22.1046 1 23 1.89543 23 3V21C23 22.1046 22.1046 23 21 23H3C1.89543 23 1 22.1046 1 21V3ZM3 2.2C2.55817 2.2 2.2 2.55817 2.2 3V21C2.2 21.4418 2.55817 21.8 3 21.8H21C21.4418 21.8 21.8 21.4418 21.8 21V3C21.8 2.55817 21.4418 2.2 21 2.2H3Z" fill="black"/>
</svg>

<svg xmlns="http://www.w3.org/2000/svg" width="24" height="24" fill="currentColor" viewBox="0 0 24 24">
  <path d="M17.94 9.408a.6.6 0 1 0-.88-.816l-6.1 6.57-4.061-3.61a.6.6 0 1 0-.798.896l4.5 4a.6.6 0 0 0 .839-.04l6.5-7Z"/>
  <path d="M1 3a2 2 0 0 1 2-2h18a2 2 0 0 1 2 2v18a2 2 0 0 1-2 2H3a2 2 0 0 1-2-2V3Zm2-.8a.8.8 0 0 0-.8.8v18a.8.8 0 0 0 .8.8h18a.8.8 0 0 0 .8-.8V3a.8.8 0 0 0-.8-.8H3Z"/>
</svg>
